img/doc.svg

<svg width="20" height="24" viewBox="0 0 20 24" fill="none" xmlns="http://www.w3.org/2000/svg">
<path d="M10 2.4H2.5V21.6H17.5V9.6H11.25C10.5596 9.6 10 9.06274 10 8.4V2.4ZM16.9822 7.2L12.5 2.89706V7.2H16.9822ZM20 7.2V22.8C20 23.4627 19.4404 24 18.75 24H1.25C0.559644 24 0 23.4627 0 22.8V1.2C0 0.537258 0.559644 0 1.25 0H12.5C12.8315 0 13.1495 0.126428 13.3839 0.351472L19.6339 6.35147C19.8683 6.57652 20 6.88174 20 7.2Z" fill="#2B2D33"/>
</svg>

<svg width="20" height="24" fill="none" xmlns="http://www.w3.org/2000/svg"><path d="M10 2.4H2.5v19.2h15v-12h-6.25c-.69 0-1.25-.537-1.25-1.2v-6zm6.982 4.8L12.5 2.897V7.2h4.482zM20 7.2v15.6c0 .663-.56 1.2-1.25 1.2H1.25C.56 24 0 23.463 0 22.8V1.2C0 .537.56 0 1.25 0H12.5c.332 0 .65.126.884.351l6.25 6c.234.226.366.53.366.849z" fill="#2B2D33"/></svg>
